!!!!SEGMENT: pl-kozmzk--mzk-m-33--006_szymanowska-maria-se-spiegar-potessi-oh-dio.krn
!!!id: 18xx:2741
!!!COM: Szymanowska, Maria
!!!OTL: Se spiegar potessi oh! Dio
!!!PDT:
!!!SMS-siglum: PL-KOZmzk
!!!SMS-shelfmark: mzk/m/33
!!!NIFC-rismID: 1001082123
!!!URL-scan: https://repozytorium.nifc.pl/islandora/object/pl-kozmzk%3A6878/datastream/PDF/view
!!!ONB-nifc: UWAGA: „Six Romances” M. Szymanowskiej na str. 63-70
!!!SMS-variant:
!!!SMS-altvar:
**kern	**kern	**dynam	**kern	**text
*part2	*part2	*part2	*part1	*part1
*staff3	*staff2	*	*staff1	*staff1
*I"Pianoforte	*I"Pianoforte	*	*I"Canto	*
*clefF4	*clefG2	*	*clefG2	*
*k[b-]	*k[b-]	*	*k[b-]	*
*M2/4	*M2/4	*	*M2/4	*
=1	=1	=1	=1	=1
!	!	!	!LO:TX:a:B:i:t=Agitato	!
2D 2DD/	8r	p	2r	.
.	8fL 8A</	.	.	.
.	8e 8G</	.	.	.
.	8dJ 8F</	.	.	.
=2	=2	=2	=2	=2
8AAA\	8c#X< 8E</	sf	2r	.
8AA\L	8gL 8B-/	.	.	.
8BBn\	8f 8A</	.	.	.
8C#X\J	8eJ 8G</	.	.	.
=3	=3	=3	=3	=3
4D\	8d 8F</	.	2r	.
.	8ffL 8a\	.	.	.
4r	8ee 8g\	.	.	.
.	8ddJ 8f\	.	.	.
=4	=4	=4	=4	=4
8AA/	8cc#X\ 8e\	<	2r	.
8A\L	(8aaL 8cc# 8a'\	.	.	.
8Bn\	8aa 8dd 8a'\	.	.	.
8c#X\J	8aaJ 8ee 8a'\)	[[	.	.
=5	=5	=5	=5	=5
8d\	8aa 8ff 8a\	.	2r	.
8r	8r	.	.	.
8G\	8ee 8b- 8g/	.	.	.
8r	8r	.	.	.
=6	=6	=6	=6	=6
!!LO:LB:g=original
8A\	8a 8f/	.	2r	.
8r	8r	.	.	.
8AA/	8cc#X 8g 8e/	.	.	.
8r	8r	.	.	.
=7	=7	=7	=7	=7
[2D\	[<2dd [2f [2d/	f	2r	.
=8	=8	=8	=8	=8
4D;\]	4dd] 4f] 4d;/]	.	4r	.
4r	4r	.	8a/	Se
.	.	.	8f/	spie-
=9	=9	=9	=9	=9
.	.	.	8qe/	.
2D 2DD/	8r	.	4.d/	-gar
.	8dL 8A< 8F</	.	.	.
.	8d 8A< 8F</	.	.	.
.	8dJ 8A< 8F</	.	8f/	po-
=10	=10	=10	=10	=10
2D 2DD\	8r	.	(8a\L	-tes-
.	8dL 8A< 8F</	.	8ff\J)	.
.	8d 8A< 8F</	.	8ee\	-si
.	8dJ 8A< 8F</	.	8dd\	oh!
=11	=11	=11	=11	=11
2E 2EE/	8r	.	4dd^\	Di-
.	8c#X<L 8B-< 8G</	.	.	.
.	8c#< 8B-< 8G</	.	8cc#X\	-o
.	8c#<J 8B-< 8G</	.	8r	.
=12	=12	=12	=12	=12
!!LO:LB:g=original
4E 4EE/	8r	.	4r	.
.	8c#X<L 8B-< 8G</	.	.	.
4r	8c#< 8B-< 8G</	.	8cc#X\	l'ec-
.	8c#<J 8B-< 8G</	.	8dd\	-ces-
=13	=13	=13	=13	=13
2C#X\	8r	.	4.ee^\	-si-
.	8eL 8A< 8G</	.	.	.
.	8e 8A< 8G</	.	.	.
.	8eJ 8A< 8G</	.	8g/	-vo
=14	=14	=14	=14	=14
2AA\	8r	.	(8g/L	mi-
.	8eL 8c#X 8G</	.	8b-/J)	.
.	8e 8c# 8G</	.	8a/	-o
.	8eJ 8c# 8G</	.	8g/	do-
=15	=15	=15	=15	=15
4D 4DD\	8r	.	8g/	-lo-
.	8dL 8A< 8F</	.	8f/	-re
4r	8d 8A< 8F</	.	4r	.
.	8dJ 8A< 8F</	.	.	.
=16	=16	=16	=16	=16
2E 2EE\	8r	sf	4r	.
.	8c<L 8B-< 8G</	.	.	.
.	8c< 8B-< 8G</	.	8dd\	des-
.	8c<J 8B-< 8G</	.	8cc\	-te
=17	=17	=17	=17	=17
4F\	8r<	.	4cc\	re-
.	8c< 8A</	.	.	.
4C\	8r<	.	8a\	-i
.	8c< 8A</	.	8r	.
=18	=18	=18	=18	=18
!!LO:LB:g=original
4E\	8r<	.	8r	.
.	8c< 8B-< 8G</	.	8cc\	nel
4C\	8r<	.	8dd^\	tu-
.	8c< 8B-< 8G</	.	8cc\	-o
=19	=19	=19	=19	=19
4F\	8r<	.	4cc\	co-
.	8c<L 8A</	.	.	.
4r	8c< 8A</	.	8a/	-re
.	8c<J 8A</	.	8r	.
=20	=20	=20	=20	=20
2BB-/	8r	.	(4ff\	qual-
.	8fL 8d/	.	.	.
.	8e 8c/	.	8ee\)	.
.	8dJ 8B-/	.	8dd\	-che
=21	=21	=21	=21	=21
2C\	8r<	.	8dd\	se-
.	8c<L 8A</	.	8cc\	-gno
.	8c< 8A</	.	4r	.
.	8c<J 8A</	.	.	.
=22	=22	=22	=22	=22
4C\	8r<	.	4.cc\	di
.	8B-< 8G</	.	.	.
4C#X\	8r<	.	.	.
.	8B-< 8G</	.	8b-\	pie-
=23	=23	=23	=23	=23
.	.	.	8qqb-/	.
4D\	8r<	.	4a/	-tà
.	8A< 8F</	.	.	.
4Cn\	8r<	.	4r	.
.	8A< 8F</	.	.	.
=24	=24	=24	=24	=24
!!LO:LB:g=original
4BBn\	8r	.	8r	.
.	8d 8G< 8F</	.	8ff\L	qual-
4BBBn\	8r	.	8ee\J	.
.	8d 8A-X< 8F</	.	8dd\	-che
=25	=25	=25	=25	=25
.	.	.	8qqdd/	.
4CC\	8r	.	4cc\	se-
.	8c<L 8An< 8F</	.	.	.
4r	8c< 8A< 8F</	.	8r	.
.	8c<J 8A< 8F</	.	8a/	-gno
=26	=26	=26	=26	=26
.	.	.	8qqcc/	.
4C\	8r	.	4b-/	di
.	8eL 8B-< 8G</	.	.	.
4r	8e 8B-< 8G</	.	8r	.
.	8eJ 8B-< 8G</	.	8g/	pie-
=27	=27	=27	=27	=27
4FF\	4f 4A< 4F</	f	2f/	-tà.
4F\	4a 4c< 4A</	.	.	.
=28	=28	=28	=28	=28
4FF\	4f 4A< 4F</	.	4r	.
4r	4r	.	8a/	Se
.	.	.	8f/	spie-
=29	=29	=29	=29	=29
2D 2DD\	8r	.	(8e/L	-gar
.	8dL 8A< 8F</	.	8d/J)	.
.	8d 8A< 8F</	.	(8a/L	po-
.	8dJ 8A< 8F</	.	8f/J)	.
=30	=30	=30	=30	=30
2D 2DD\	8r	.	(8dd\L	-tes-
.	8dL 8A< 8F</	.	8a\J)	.
.	8d 8A< 8F</	.	8ff^\	-si
.	8dJ 8A< 8F</	.	8dd\	oh!
=31	=31	=31	=31	=31
!!LO:LB:g=original
2D 2DD\	8r	.	4dd\	Di-
.	8B-<L 8G< 8E</	.	.	.
.	8B-< 8G< 8E</	.	8cc#X\	-o
.	8B-<J 8G< 8E</	.	8r	.
=32	=32	=32	=32	=32
4D 4DD\	8r	.	4r	.
.	8c#X<L 8B-< 8G</	.	.	.
4r	8c#< 8B-< 8G</	.	8cc#X\	l'ec-
.	8c#<J 8B-< 8G</	.	8dd\	-ces-
=33	=33	=33	=33	=33
4C#X\	8r	.	(8ee\L	-si-
.	8e 8A< 8G</	.	8g\J)	.
4AA\	8r	.	(8b-/L	-vo
.	8e 8c#X 8G</	.	8e/J)	.
=34	=34	=34	=34	=34
4C#X\	8r	.	(8g/L	mi-
.	8e 8A< 8G</	.	8c#X/J)	.
4AA\	8r	.	8b-^>/	-o
.	8e 8c#X 8G</	.	8a/	do-
=35	=35	=35	=35	=35
4D 4DD\	8r	.	8g/	-lo-
.	8dL 8A< 8F</	.	8f/	-re
4r	8d 8A< 8F</	.	4r	.
.	8dJ 8A< 8F</	.	.	.
=36	=36	=36	=36	=36
2E 2EE\	8r<	.	4r	.
!	!	!LO:DY:a=2	!	!
.	8c<L 8B-< 8G</	sf	.	.
.	8c< 8B-< 8G</	.	8dd\	des-
.	8c<J 8B-< 8G</	.	8cc\	-te
=37	=37	=37	=37	=37
!!LO:LB:g=original
4F\	8r<	.	4cc\	re-
.	8c< 8A</	.	.	.
4C\	8r<	.	8a\	-i
.	8c< 8A</	.	8r	.
=38	=38	=38	=38	=38
4E\	8r<	.	8r	.
.	8c< 8B-< 8G</	.	8cc\	nel
.	.	.	8qee/	.
4C\	8r<	.	8dd\	tu-
.	8c< 8B-< 8G</	.	8cc\	-o
=39	=39	=39	=39	=39
4F\	8r<	.	4cc\	co-
.	8c<L 8A</	.	.	.
4r	8c< 8A</	.	8a\	-re
.	8c<J 8A</	.	8r	.
=40	=40	=40	=40	=40
2BB-/	8r	.	(4ff\	qual-
.	8fL 8d/	.	.	.
.	8e 8c/	.	8ee\)	.
.	8dJ 8B-/	.	8dd\	-che
=41	=41	=41	=41	=41
2C\	8r<	.	8dd\	se-
.	8c<L 8A</	.	8cc\	-gno
.	8c< 8A</	.	4r	.
.	8c<J 8A</	.	.	.
=42	=42	=42	=42	=42
!!LO:LB:g=original
2C#X\	8r<	sf	(>16cc/LL	di
.	.	.	16b-/	.
.	8B-<L 8G< 8E</	.	16a/	.
.	.	.	16b-/JJ	.
.	8B-< 8G< 8E</	.	8cc/)	.
.	8B-<J 8G< 8E</	.	8b-/	pie-
=43	=43	=43	=43	=43
.	.	.	8qqb-/	.
4D\	8r<	.	4a/	-tà
.	8A< 8F</	.	.	.
4Cn\	8r<	.	4r	.
.	8A< 8F</	.	.	.
=44	=44	=44	=44	=44
!	!	!	!LO:TUP:problem:klamra łukowa, numer	!
4BBn\	8r	.	12r	.
.	.	.	12ff\L	qual-
.	8d 8G< 8F</	.	.	.
.	.	.	12ee\	.
4BBBn\	8r	sf	12gg\	.
.	.	.	12ff\J	.
.	8d 8A-X< 8F</	.	.	.
.	.	.	12dd\	-che
=45	=45	=45	=45	=45
.	.	.	8qqdd/	.
4CC\	8r<	.	4cc\	se-
.	8c<L 8An< 8F</	.	.	.
4r	8c< 8A< 8F</	.	8r	.
.	8c<J 8A< 8F</	.	8a/	-gno
=46	=46	=46	=46	=46
.	.	.	8qqcc/	.
4C\	8r	.	4b-/	di
.	8eL 8B-< 8G</	.	.	.
4r	8e 8B-< 8G</	.	8r	.
.	8eJ 8B-< 8G</	.	8g/	pie-
=47	=47	=47	=47	=47
4FF\	4f 4A< 4F</	f	2f/	-tà
4F:\	4a: 4c<: 4A<:/	.	.	.
=48	=48	=48	=48	=48
!!LO:PB:g=original
4FF\	4f: 4A<: 4F<:/	.	4r	.
4r	4r	.	8a/	for-
.	.	.	8g/	-se al-
=49	=49	=49	=49	=49
4.c\	4.f#X 4.e/	.	2f#X/	-lor
8c\	8f# 8e/	.	.	.
=50	=50	=50	=50	=50
4B-\	4g 4d/	.	4g/	fat-
!	!	!	!LO:N:vis=8	!
4F#X\	4a 4d/	.	8.a/	-ta
.	.	.	16a/	pie-
=51	=51	=51	=51	=51
2G\	2b- 2d/	.	8cc/	-to
.	.	.	8b-/	sa
.	.	.	4r	.
=52	=52	=52	=52	=52
!	!LO:TX:i:b:t=ten	!	!	!
2A 2AA\	2a 2f 2d/	.	4r	.
.	.	.	8a/	vol-
.	.	.	8a/	-ge
=53	=53	=53	=53	=53
.	.	.	8qqa/	.
!	!	!LO:HP:t=cre-scen-do:ext2=cd	!	!
2B- 2BB-\	2g#X 2f 2d/	<	4g#X/	res-
.	.	.	4g#/	-te a
=54	=54	=54	=54	=54
2B- 2BB-\	2g#X 2e 2d/	.	(4dd\	me
.	.	.	8ee\)	.
.	.	.	8ff\	lo
=55	=55	=55	=55	=55
[2A [>2AA\	[2a [>2e [>2c#X/	.	(>8ee\L	spe-
.	.	.	8cc#X\	.
.	.	.	8a\	.
.	.	.	8qccn/	.
.	.	.	8b-\J)	.
=56	=56	=56	=56	=56
!!LO:LB:g=original
4A] 4AA\]	4a] 4e] 4c#/]	.	8a/L	-ro
.	.	.	8g/J	.
!	!	!LO:HP:t=dim	!	!
4r	4r	>	8f/	u-
.	.	.	8e/	-no
=57	=57	=57	=57	=57
4D\	8r	.	4d/	sguar-
.	8d/	p	.	.
4F\	8r	.	4f/	-do
!	!LO:TX:b:i:t=sti-ra-ci-a-to	!	!	!
.	8f/	.	.	.
=58	=58	=58	=58	=58
4B-\	8r	.	4b-/	lu-
.	8b-/	.	.	.
4G#X\	8r	.	4g#X/	-sin-
.	8g#X/	.	.	.
=59	=59	=59	=59	=59
4A\	8r	.	4a/	-ghie-
.	8a/	.	.	.
4g\	8r	.	4b-/	-ro
.	8b-/	.	.	.
=60	=60	=60	=60	=60
4f\	8r	.	4a/	del-
.	8a/	.	.	.
4e\	8r	.	4g/	-la
.	8g/	.	.	.
=61	=61	=61	=61	=61
4d\	8r	.	(>4f/	mi-
.	8f/	.	.	.
4G#X\	8r	.	8e/)	.
.	8e 8d/	.	8d/	-a
=62	=62	=62	=62	=62
4A\	8r	.	(8c#X/L	fe-
.	8e 8c#X/	.	8b-/J)	.
4C#X\	8r	.	8a/	-li-
.	8g 8e 8A/	sf	8g/	-ci-
=63	=63	=63	=63	=63
!!LO:LB:g=original
.	.	.	8qg/	.
4D\	4f 4d 4A/	.	(4f/	-tà
[4AA\	[4e [>4c#X [>4A/	.	4e/)	.
=64	=64	=64	=64	=64
8AA\]	8e] 8c#] 8A/]	.	4r	.
8r	8r	sf	.	.
(4c#X\	4b- 4g 4e/	.	8b-^>/	u-
.	.	.	8a/	-no
=65	=65	=65	=65	=65
8d\)	8a 8f/	.	4a/	sguar-
8r	8r	.	.	.
(4C#X/	4b- 4g 4e/	rf	8b-^>/L	-do
.	.	.	8a/J	.
=66	=66	=66	=66	=66
8D/)	8a 8f/	.	4a/	lu-
8r	8r	.	.	.
.	.	.	(>8qcc/	.
4c#X\	4b- 4g 4e/	rf	8b-^>/L	-sin-
.	.	.	8a/J)	.
=67	=67	=67	=67	=67
!LO:N:vis=4	!	!	!	!
4.d\	4.a 4.f;/	.	4a/	-ghie-
.	.	.	8f;/	-ro
8r	8r	.	8r	.
=68	=68	=68	=68	=68
2A 2AA\	8r	.	8r	.
.	8ggL 8b-\	f	(8gg^\L	del-
.	8ff 8a\	.	8ff\J)	.
.	8eeJ 8g\	.	8ee\	-la
=69	=69	=69	=69	=69
8.D\L	8.ffL 8.a\	.	8.ff\L	mi-
16E\K	16eeJk 16g\	.	16ee\Jk	.
8.F\	[4dd [>4f/	.	4dd\	-a
16G\Jk	.	.	.	.
=70	=70	=70	=70	=70
!LO:TX:t=P:problem:mixed beam	!	!	!	!
8A\L	8dd]L 8f/]	.	8r	.
8G#X\	8dd 8f/	.	8dd\	fe-
8A\	8ee 8g/	.	8ee\	-li-
8AA/J	8cc#XJ 8e/	.	8cc#X\	-ci-
=71	=71	=71	=71	=71
!!LO:LB:g=original
4D\	8ddL 8f`/	.	(4dd\	-tà
.	(16aL 16f/	.	.	.
.	16b-JJ 16g/)	.	.	.
4r	8aL 8f/	.	8a\)	.
.	8aJ 8f/	.	8r	.
=72	=72	=72	=72	=72
8AA/	8r	f	8r	.
(8A'\L	8ggL 8b-\	.	(8gg^\L	del-
8Bn'\	8ff 8a\	.	8ff\J)	.
8c#X'\J)	8eeJ 8g\	.	8ee\	-la
=73	=73	=73	=73	=73
*	*^	*	*	*
(8d'\L	8.ff/L	4a\	.	8.ff\L	mi-
8cn'\	.	.	.	.	.
.	16ee/Jk	.	.	16ee\Jk	.
8Bn'\	4dd/	8g\L	.	4dd\	-a
8B-X'\J)	.	8g#X\J	.	.	.
*	*v	*v	*	*	*
=74	=74	=74	=74	=74
4A\	8ddL 8a 8f'/	.	8r	.
.	8ff 8a^/	.	8ff^\	fe-
4AA/	8ee 8g'/	.	8ee\	-li-
.	8ffJ 8a^/	.	8ff^\	-ci-
=75	=75	=75	=75	=75
*tremolo	*	*	*	*
8DL 8AA 8FF 8DD/	8ddL 8f/	f	[2dd\	-tà.
8D 8AA 8FF 8DD/	16f/L	.	.	.
.	16a/JJ	.	.	.
8D 8AA 8FF 8DD/	8dd/L	.	.	.
8DJ 8AA 8FF 8DD/	16d/L	.	.	.
.	16f/JJ	.	.	.
=76	=76	=76	=76	=76
8DL 8AA 8FF 8DD/	8a/L	.	2dd\_	.
8D 8AA 8FF 8DD/	16A/L	.	.	.
.	16d/JJ	.	.	.
8D 8AA 8FF 8DD/	8f/L	.	.	.
8DJ 8AA 8FF 8DD/	16F</L	.	.	.
*Xtremolo	*	*	*	*
.	16A</JJ	.	.	.
=77	=77	=77	=77	=77
2AA 2FF 2DD;<\	2d< 2F< 2D<;/	.	2dd;\]	.
==	==	==	==	==
*-	*-	*-	*-	*-
!!!system-decoration: s1{s2,s3}
!!!ENC: Kamil Watkowski
!!!END: 2021-08-09
!!!RDF**kern: > = above
!!!RDF**kern: < = below
